X: 14365
T: Galop
R: polka
M: 2/4
K: Dmajor
A|FA de|d3 d|Ad fg|f3 f|fe eB|e3 f|ed FG|A3 G|
FA de|d3 d|Ad fg|f3 f|fe eB|ed dA|dc Bc|d2 d2||
a2 A>B|c>d e2|a2 f>e|d>e f2|a2 e>f|g>b a2|a2 d>e|f>b a2|
a2 A>B|c>d e2|a2 f>e|d>e f2|a2 e>f|g>b a2|ag fe|d3||

